X: 5
T: The Belfast
R: hornpipe
M: 4/4
L: 1/8
K: Dmaj
f>ad>f A>dF>A | D>FA>d f2 e>f | g>be>g c>eA>F | G>AB>G E2 a>g |f>ad>f A>dF>A | D>FA>d f2 e>f | g>bg>e c>AB>c | d2 f2 d2 :|G>FG>A B>cd>e | f3 e d>cd>B | A2 f2 f>Af>A | B2 e2 e>Ge>G | G>FG>A B>cd>e | f3 e d>cd>B | A>fe>d c>AB>c | d2 f2 d2 :|(3fgf (3efe (3ded (3cdc | (3BcB (3ABA G2 a>g | (3gag (3fgf (3efe (3ded | (3cdc (3BcB A2 a>g) |(3fgf (3efe (3ded (3cdc | (3BcB (3ABA (3GAG (3FGF | E>ge>d c>AB>c | d2 f2 d2 :|


Tune 4	Setting 4

